X:1
T:Title
%%score { ( 1 4 5 ) | ( 2 3 ) }
L:1/8
M:4/4
K:E
V:1 treble nm="Grand Piano"
V:4 treble 
V:5 treble 
V:2 bass 
V:3 bass 
V:1
 z4 z2[Q:1/4=100] [GB]A | G2 G2 G2 [FA][EG] | [DF]2 [DF]2 [DF]2 [EG]F | EEEE [B,DF]2 [B,EG]2 | %4
 z4 z2 .B2 | G2 G2 G2 [FA][EG] | [DF]2 [DF]2 [DF]2 [EG]F | EEEE [EG]2 [DF]2 |[M:3/4] E6 | %9
[M:1/4] BA |[M:4/4] [EG]6 z2 | [DF]6 z2 | [FA]6 z2 | [EG]6 z2 | %14
 [GB]->[EG-B-] [EG-B-][EG-B-] [EGB]GAB | [Ac]->[EA-c-] [EA-c-][EA-c-] [EAc]2 c2 | %16
 [GB]2 [EG]2 [EB][CFA][B,EG][A,DF] |[M:3/4] [G,E]6 |] %18
V:2
 z4 z2 z F | [E,B,E]2 [E,B,E]2 [E,B,E]2 [E,B,]2 | z4 z2 .B,2 | [C,G,][C,G,][C,G,][C,G,] B,,2 E,2 | %4
 B,,6 B,,D, | [E,B,E]2 [E,B,E]2 [E,B,E]2 [E,B,]2 | z4 z2 .B,2 | %7
 [C,G,][C,G,][C,G,][C,G,] [B,,B,]2 [B,,A,]2 |[M:3/4] [E,G,]6 |[M:1/4][K:treble] GF | %10
[M:4/4][K:bass] E,>E, E,E, z[K:treble] GFE | B,,>B,, B,,B,, B,,2 [B,,B,]2 | %12
 [B,,B,]>B,, B,,B,, z A [B,,B,]2 | [E,B,]>E, E,E, E,2[K:treble] EF | E,>E, E,E, z[K:treble] EFG | %15
 A,>A, A,A, A,2 [A,EA]2 | [E,E]2 [E,B,]2 [E,G,]A,,B,,B,, |[M:3/4] E,6 |] %18
V:3
 z4 z2 [E,B,]2 | x8 | [B,,B,]2 [B,,B,]2 [B,,B,]2 B,,-[B,,A,D] | x8 | x8 | x8 | %6
 [B,,B,]2 [B,,B,]2 [B,,B,]2 B,,-[B,,A,D] | x8 |[M:3/4] x6 |[M:1/4][K:treble] x2 | %10
[M:4/4][K:bass] z4 E,2[K:treble] z2 | x8 | z4 B,,2 z2 | x6[K:treble] x2 | z4 E,2[K:treble] z2 | %15
 x8 | x8 |[M:3/4] x6 |] %18
V:4
 x8 | x8 | x8 | x8 | [B,DF]6 [B,F]-[B,FA] | x8 | x8 | x8 |[M:3/4] x6 |[M:1/4] x2 | %10
[M:4/4] B,>B, B,B, z BAG | B,>B, B,B, B,2 [DF][EG] | z z/ B,/ B,B, z c[GB][FA] | %13
 z z/ B,/ B,B, B,2 GA | E2 z2 z4 | E2 z2 z4 | x8 |[M:3/4] x6 |] %18
V:5
 x8 | x8 | x8 | x8 | x8 | x8 | x8 | x8 |[M:3/4] x6 |[M:1/4] x2 |[M:4/4] z4 B,2 z2 | x8 | %12
 z4 B,2 z2 | x8 | x8 | x8 | x8 |[M:3/4] x6 |] %18

